dist/images/burger-menu.svg

<svg height="12" width="18" xmlns="http://www.w3.org/2000/svg"><path d="M0 12h18v-2H0v2zm0-5h18V5H0v2zm0-7v2h18V0H0z" fill-rule="evenodd"/></svg>

<?xml version="1.0" ?><svg height="12px" version="1.1" viewBox="0 0 18 12" width="18px" xmlns="http://www.w3.org/2000/svg" xmlns:sketch="http://www.bohemiancoding.com/sketch/ns" xmlns:xlink="http://www.w3.org/1999/xlink"><title/><desc/><defs/><g fill="none" fill-rule="evenodd" id="Page-1" stroke="none" stroke-width="1"><g fill="#000000" id="Core" transform="translate(-87.000000, -342.000000)"><g id="menu" transform="translate(87.000000, 342.000000)"><path d="M0,12 L18,12 L18,10 L0,10 L0,12 L0,12 Z M0,7 L18,7 L18,5 L0,5 L0,7 L0,7 Z M0,0 L0,2 L18,2 L18,0 L0,0 L0,0 Z" id="Shape"/></g></g></g></svg>
